src/categories-icons-sprite/categories/svg-cat-sport-medical.svg

<svg width="30" height="30" viewBox="0 0 30 30" fill="none" xmlns="http://www.w3.org/2000/svg">
<path class="p-83878C" d="M24.6387 23.7305H26.3965C26.8819 23.7305 27.2754 24.124 27.2754 24.6094C27.2754 25.0948 26.8819 25.4883 26.3965 25.4883H24.6387V23.7305Z" fill="#5FBEFF"/>
<path class="p-000000" d="M9.66797 24.6094H8.20312L8.78906 30H9.66797V24.6094Z" fill="#4D98CB"/>
<path class="p-202833" d="M7.91016 24.6094H8.78906V30H7.91016V24.6094Z" fill="#65B3E7"/>
<path class="p-000000" d="M24.0527 25.4883L24.6387 30H25.5176V27.2461L24.0527 25.4883Z" fill="#4D98CB"/>
<path class="p-202833" d="M23.7598 27.2461V30H24.6387V25.4883L23.7598 27.2461Z" fill="#65B3E7"/>
<path class="p-414851" d="M25.5176 27.2461V21.0938H24.0527L24.6387 27.2461H25.5176Z" fill="#A1D1FD"/>
<path class="p-62676F" d="M23.7598 21.0938H24.6387V27.2461H23.7598V21.0938Z" fill="#B9DFFC"/>
<path class="p-414851" d="M24.6387 0C25.1241 0 25.5176 0.3935 25.5176 0.878906V6.15234H24.0527L24.6387 0Z" fill="#4D98CB"/>
<path class="p-62676F" d="M23.7598 0.878906C23.7598 0.3935 24.1533 0 24.6387 0V6.15234H23.7598V0.878906Z" fill="#65B3E7"/>
<path class="p-202833" d="M24.6387 1.75781L22.8809 11.8652L24.6387 21.9727H27.2754V18.6438C28.9478 17.7003 30 15.9261 30 13.9746V7.11914C30 4.1629 27.5949 1.75781 24.6387 1.75781Z" fill="#4D98CB"/>
<path class="p-414851" d="M19.2773 7.11914V13.9746C19.2773 15.9261 20.3295 17.7003 22.002 18.6438V21.9727H24.6387V1.75781C21.6824 1.75781 19.2773 4.1629 19.2773 7.11914Z" fill="#65B3E7"/>
<path class="p-000000" d="M14.9707 21.9727V17.5781H8.78906L7.03125 23.7305L14.9707 21.9727Z" fill="#4D98CB"/>
<path class="p-202833" d="M8.78906 17.5781H2.60742V21.9727L8.78906 23.1445V17.5781Z" fill="#65B3E7"/>
<path class="p-83878C" d="M8.78906 21.9727L7.03125 23.7305L8.78906 25.4883H14.9707V21.9727H8.78906Z" fill="#A1D1FD"/>
<path class="p-A4A6AA" d="M2.60742 21.9727H8.78906V25.4883H2.60742V21.9727Z" fill="#B9DFFC"/>
<path class="p-83878C" d="M8.78906 0L4.39453 8.78906L8.78906 17.5781C13.6432 17.5781 17.5781 13.6432 17.5781 8.78906C17.5781 3.93494 13.6432 0 8.78906 0Z" fill="#58ADE5"/>
<path class="p-A4A6AA" d="M0 8.78906C0 13.6432 3.93494 17.5781 8.78906 17.5781V0C3.93494 0 0 3.93494 0 8.78906Z" fill="#A1D1FD"/>
<path class="p-DBFFFC" d="M8.78906 1.75781L5.27344 8.78906L8.78906 15.8203C12.6723 15.8203 15.8203 12.6723 15.8203 8.78906C15.8203 4.90585 12.6723 1.75781 8.78906 1.75781Z" fill="#A1D1FD"/>
<path class="p-FFFFFF" d="M1.75781 8.78906C1.75781 12.6723 4.90585 15.8203 8.78906 15.8203V1.75781C4.90585 1.75781 1.75781 4.90585 1.75781 8.78906Z" fill="#B9DFFC"/>
<path class="p-202833" d="M9.66797 7.93945H8.78906L8.20312 11.001L8.78906 14.0625C9.27447 14.0625 9.66797 13.669 9.66797 13.1836V7.93945Z" fill="#4D98CB"/>
<path class="p-414851" d="M7.91016 7.93945H8.78906V14.0625C8.30366 14.0625 7.91016 13.669 7.91016 13.1836V7.93945Z" fill="#65B3E7"/>
</svg>

<svg width="30" height="30" fill="none" xmlns="http://www.w3.org/2000/svg"><path class="p-83878C" d="M24.639 23.73h1.758a.879.879 0 010 1.758h-1.758V23.73z" fill="#5FBEFF"/><path class="p-000000" d="M9.668 24.61H8.203L8.79 30h.879v-5.39z" fill="#4D98CB"/><path class="p-202833" d="M7.91 24.61h.88V30h-.88v-5.39z" fill="#65B3E7"/><path class="p-000000" d="M24.053 25.488L24.639 30h.879v-2.754l-1.465-1.758z" fill="#4D98CB"/><path class="p-202833" d="M23.76 27.246V30h.879v-4.512l-.88 1.758z" fill="#65B3E7"/><path class="p-414851" d="M25.518 27.246v-6.152h-1.465l.586 6.152h.879z" fill="#A1D1FD"/><path class="p-62676F" d="M23.76 21.094h.879v6.152h-.88v-6.152z" fill="#B9DFFC"/><path class="p-414851" d="M24.639 0c.485 0 .879.394.879.879v5.273h-1.465L24.639 0z" fill="#4D98CB"/><path class="p-62676F" d="M23.76.879c0-.485.393-.879.879-.879v6.152h-.88V.88z" fill="#65B3E7"/><path class="p-202833" d="M24.639 1.758L22.88 11.865l1.758 10.108h2.636v-3.33A5.355 5.355 0 0030 13.976V7.119a5.367 5.367 0 00-5.361-5.361z" fill="#4D98CB"/><path class="p-414851" d="M19.277 7.12v6.855a5.355 5.355 0 002.725 4.669v3.329h2.637V1.758a5.367 5.367 0 00-5.362 5.361z" fill="#65B3E7"/><path class="p-000000" d="M14.97 21.973v-4.395H8.79L7.03 23.73l7.94-1.757z" fill="#4D98CB"/><path class="p-202833" d="M8.79 17.578H2.606v4.395l6.182 1.172v-5.567z" fill="#65B3E7"/><path class="p-83878C" d="M8.79 21.973L7.03 23.73l1.758 1.757h6.182v-3.515H8.789z" fill="#A1D1FD"/><path class="p-A4A6AA" d="M2.607 21.973H8.79v3.515H2.607v-3.515z" fill="#B9DFFC"/><path class="p-83878C" d="M8.79 0L4.394 8.79l4.394 8.788A8.789 8.789 0 108.79 0z" fill="#58ADE5"/><path class="p-A4A6AA" d="M0 8.79a8.789 8.789 0 008.79 8.788V0A8.789 8.789 0 000 8.79z" fill="#A1D1FD"/><path class="p-DBFFFC" d="M8.79 1.758L5.272 8.789 8.79 15.82a7.031 7.031 0 000-14.062z" fill="#A1D1FD"/><path class="p-FFFFFF" d="M1.758 8.79a7.031 7.031 0 007.031 7.03V1.758a7.031 7.031 0 00-7.031 7.031z" fill="#B9DFFC"/><path class="p-202833" d="M9.668 7.94h-.879L8.203 11l.586 3.062a.879.879 0 00.879-.88V7.94z" fill="#4D98CB"/><path class="p-414851" d="M7.91 7.94h.88v6.122a.879.879 0 01-.88-.878V7.939z" fill="#65B3E7"/></svg>
